src/assets/svg/icons/fa/nuevos/classic/duotone/trademark classic duotone.svg

<svg xmlns="http://www.w3.org/2000/svg" viewBox="0 0 640 512"><defs><style>.fa-secondary{opacity:.4}</style></defs><path class="fa-primary" d="M224 96.01H32c-17.67 0-32 14.31-32 32s14.33 32 32 32h64v223.1c0 17.69 14.33 31.99 32 31.99s32-14.3 32-31.99V160h64c17.67 0 32-14.31 32-32S241.7 96.01 224 96.01z"/><path class="fa-secondary" d="M640 128v256c0 17.69-14.33 32-32 32s-32-14.31-32-32v-160l-86.41 115.2c-12.06 16.12-39.13 16.12-51.19 0L352 224v160c0 17.69-14.33 32-32 32s-32-14.31-32-32v-256c0-13.78 8.812-26 21.88-30.34c13.08-4.406 27.45 .125 35.72 11.16L464 266.7l118.4-157.8c8.266-11 22.7-15.53 35.72-11.16C631.2 102 640 114.2 640 128z"/></svg>

<svg xmlns="http://www.w3.org/2000/svg" viewBox="0 0 640 512"><!--! Font Awesome Pro 6.4.0 by @fontawesome - https://fontawesome.com License - https://fontawesome.com/license (Commercial License) Copyright 2023 Fonticons, Inc. --><defs><style>.fa-secondary{opacity:.4}</style></defs><path class="fa-primary" d="M32 96C14.3 96 0 110.3 0 128s14.3 32 32 32H96V384c0 17.7 14.3 32 32 32s32-14.3 32-32V160h64c17.7 0 32-14.3 32-32s-14.3-32-32-32H32z"/><path class="fa-secondary" d="M309.9 97.6c13.1-4.4 27.5 .1 35.7 11.2L464 266.7 582.4 108.8c8.3-11 22.7-15.5 35.7-11.2S640 114.2 640 128V384c0 17.7-14.3 32-32 32s-32-14.3-32-32V224L489.6 339.2c-6 8.1-15.5 12.8-25.6 12.8s-19.6-4.7-25.6-12.8L352 224V384c0 17.7-14.3 32-32 32s-32-14.3-32-32V128c0-13.8 8.8-26 21.9-30.4z"/></svg>
